X:1
T:Max Lieblich
T:Berthier
%%score { ( 1 2 ) | ( 3 4 ) }
L:1/8
Q:1/4=184
M:4/2
K:D
V:1 treble 
V:2 treble 
V:3 bass 
V:4 bass 
V:1
"^Presto" F4 | F6 F2 G4 A4 | B4 B4 A4 F4 | E6 E2 E4 F4 | E12 F4 | F6 F2 G4 A4 | B4 c4 d4 F4 | %7
 E6 E2 F4 E4 | D12 | D8 D8 |] %10
V:2
 D4 | D6 D2 D4 D4 | D4 C4 D4 D4 | D6 D2 D4 D4 | (D4 C2 B,2 C4) D4 | D6 D2 D4 D4 | D4 E4 D4 D4 | %7
 D6 D2 D4 (D2 C2) | D12 | B,8 A,8 |] %10
V:3
 A,4 | A,6 A,2 A,4 A,4 | G,4 G,4 A,4 A,4 | ^G,4 A,4 B,4 G,4 | A,12 A,4 | A,6 A,2 A,4 A,4 | %6
 (D2 B,2) ^A,4 B,4 F,4 | B,4 _B,4 A,4 G,4 | F,12 | G,8 F,8 |] %10
V:4
 D,4 | D,6 D,2 E,4 F,4 | G,4 E,4 F,4 D,4 | B,,4 A,,4 ^G,,4 E,4 | A,,12 D,4 | D,6 D,2 E,4 F,4 | %6
 G,4 F,4 B,,4 (B,,2 A,,2) | G,,4 G,,4 A,,4 A,,4 | D,12 | G,,8 D,8 |] %10

